X:1
T:CANON
T:CANON 
T:in D (E flat) 
T:Copyright 2019 by alexyss
T:Copyright 2019 by alexyss
T:Copyright 2019 by alexyss
T:Copyright 2019 by alexyss
T:Copyright 2019 by alexyss
T:Copyright 2019 by alexyss
Z:Copyright 2019 by alexyss
%%score 1 2
L:1/8
Q:1/4=52
M:4/4
K:Eb
V:1 treble nm="Flute" snm="Fl."
V:2 treble transpose=-2 nm="B♭ Clarinet" snm="B♭ Cl."
V:1
 z8 | z8 | g2 f2 e2 d2 | c2 B2 c2 d2 | e2 d2 c2 B2 | A2 G2 A2 Ff | (eg)(ba) (ge)(gf) | %7
 (ec)(eb) (ac')(ba) | (ge)(fd) (eg)(bB) | (c'a)(bg) (eE) (!trill(!Te>!trill)!d) | %10
 e/d/e/E/ D/B/F/G/ E/e/d/c/ d/g/b/c'/ | A/G/F/A/ G/f/e/d/ c/b/a/g/ f/a/g/f/ | %12
 e/f/g/a/ b/f/b/a/ g/c'/b/a/ b/a/g/f/ | e/c/c'/d'/ e'/d'/c'/b/ a/g/f/c'/ b/c'/b/a/ | %14
 z g f2 z e g2 | c2 B2 c'2 d'2 | e'e d2 z c e2 | e3 E eaf(b | %18
 (b/)g/4a/4)(b/g/4a/4) .b/4(B/4c/4d/4e/4f/4g/4a/4) (g/e/4f/4).g/(G/4A/4) (B/4c/4B/4A/4B/4G/4A/4B/4) | %19
 (A/c/4B/4)(A/G/4F/4) (G/4F/4E/4F/4G/4A/4B/4c/4) (A/c/4B/4)(c/d/4e/4) (B/4c/4d/4e/4f/4g/4a/4b/4) | %20
 (g/e/4f/4)(g/f/4e/4) (f/4d/4e/4f/4g/4f/4e/4d/4) (e/c/4d/4).e/(E/4F/4) (G/4A/4G/4F/4G/4e/4d/4e/4) | %21
 (c/e/4d/4)c/(B/4A/4) (B/4A/4G/4A/4B/4c/4d/4e/4) (c/e/4d/4)e/(d/4c/4) (d/4e/4f/4e/4d/4e/4c/4d/4) | %22
 e z d z c z e z | E z e z E z F z | z B z B z G z B | z A z G z A z f | %26
 g/G/A/G/ F/f/g/f/ e/G/E/A/ B/b/a/b/ | c'/c/d/c/ B/b/a/b/ c'/c/B/c/ d/d'/c'/d'/ | %28
 e'/e/f/e/ d/d'/e'/d'/ c'/c/B/c/ d/d'/g'/f'/ | e'/e/f/a/ g/G/B/e/ c/a/g/a/ f/b'/a'/b'/ | %30
 g'/b/b/b/ b/b/b'/b/ g/g/g/g/ g'/g/b/b/ | a/a/a/e/ e/e/e/e'/ e/e/c/c/ B/B/f/d/ | %32
 B/g/g/g/ f/f/f'/f/ e/e/e/e/ b/b/B/b/ | c/c/c/c/ B/B/B/B/ c/c/c/c/ d/d'/d'/d'/ | %34
 e'/(e/4f/4g/).e/ .d/(d'/4e'/4f'/).d'/ .c'/(c/4d/4e/).c/ .d/(b/4a/4g/).f/ | %35
 e/(a/4g/4f/).a/ .g/(e/4f/4g/).b/ .a/(c'/4b/4a/).g/ .f/(b/4a/4g/).f/ | %36
 .g/(e'/4d'/4e'/).g/ .b/(b/4c'/4d'/).b/ .g/(e'/4f'/4g'/).e'/ .g'/(g'/4f'/4e'/)d'/ | %37
 .c'/(c'/4b/4c'/).d'/ .e'/(g'/4f'/4e'/).g'/ .a'/(e'/4d'/4c'/).c'/ b/f/b/b/ | b2 z a e2 z b | %39
 a2 b2 ae (Te>d) | ee' d'2 c'2 b2 | e>f g2 c'2 f>f | g>G (G/A/)(G/F/) E>e (e/f/)(e/d/) | %43
 c2 e2 (e/_d/)(c/d/) B>b | b>b (b/c'/)(b/a/) g>g (g/a/)(g/f/) | (e/_d/)(c/d/) B>b ae f>=d | %46
 e e2 x- d c2 b- | b a2 g- g>f f2 | f G2 F E e2 _d | c2 eB c2 B2 | B2 (b>a) g2 g'>f' | %51
 e'3 e' e'2 d'2 | !tenuto!e'!tenuto!e!tenuto!d!tenuto!d' !tenuto!c'!tenuto!c!tenuto!B!tenuto!b | %53
 !tenuto!a!tenuto!a'!tenuto!g'!tenuto!g !tenuto!g f2 !tenuto!f' | %54
 !tenuto!g'!tenuto!g!tenuto!f!tenuto!f' !tenuto!e'!tenuto!e!tenuto!d!tenuto!d' | %55
 !tenuto!c'!tenuto!c''!tenuto!b'!tenuto!b (a>d') !tenuto!b!tenuto!b | g4 z4 |] %57
V:2
[K:F] F2 C2 D2 A,2 | B,2 F,2 B,2 C2 | F2 C2 D2 A,2 | B,2 F,2 B,2 Cc | a2 g2 f2 e2 | d2 c2 d2 e2 | %6
 f2 e2 d2 c2 | B2 A2 B2 G2 | (FA)(cB) (AF)(AG) | (FD)(Fc) (Bd)(BB) | (AF)(Ge) (fa)(c'c) | %11
 (DB) c2 (Ff) (!trill(!Tf>!trill)!e) | f/e/f/F/ E/c/G/A/ F/f/e/d/ e/a/c'/d'/ | %13
 b/a/g/b/ a/g/f/e/ d/c/B/A/ G/B/A/G/ | F/G/A/B/ c/G/c/B/ A/d/c/B/ c/B/A/G/ | %15
 F/D/d/e/ f/e/d/c/ B/A/G/d/ c/d/c/B/ | Aa g2 z f a2 | d2 c2 d2 e2 | fF E2 z D F2 | F3 f FBGc | %20
 (c'/a/4b/4)(c'/a/4b/4) (.c'/4c/4d/4e/4f/4g/4a/4b/4) (a/f/4g/4).a/(A/4B/4) (c/4d/4c/4B/4c/4A/4B/4c/4) | %21
 (B/d/4c/4)B/(A/4G/4) (A/4G/4F/4G/4A/4B/4c/4d/4) (B/d/4c/4)d/(e/4f/4) (c/4d/4e/4f/4g/4a/4b/4c'/4) | %22
 (a/f/4g/4)a/(g/4f/4) (g/4e/4f/4g/4a/4g/4f/4e/4) (f/d/4e/4).f/(F/4G/4) (A/4B/4A/4G/4A/4f/4e/4f/4) | %23
 (d/f/4e/4)(d/c/4B/4) (c/4B/4A/4B/4c/4d/4e/4f/4) (d/f/4e/4)(f/e/4d/4) (e/4f/4g/4f/4e/4f/4d/4e/4) | %24
 (f/F/4G/4)(A/G/4F/4) (G/4E/4F/4G/4A/4G/4F/4E/4) (F/D/4E/4).F/(F,/4G,/4) (A,/4B,/4A,/4G,/4A,/4F/4E/4F/4) | %25
 (D/F/4E/4)(D/C/4B,/4) (C/4B,/4A,/4B,/4C/4D/4E/4F/4) (D/F/4E/4)(F/E/4D/4) (E/4F/4G/4F/4E/4F/4D/4E/4) | %26
 Fc z c z A z c | z B z A z B z g | a/A/B/A/ G/g/a/g/ f/A/F/d/ A/c'/b/c'/ | %29
 d'/d/e/d/ c/c'/b/c'/ d'/d/c/d/ e/e'/d'/e'/ | f/F/G/F/ E/e/f/e/ d/d'/c'/d'/ e'/e/a/g/ | %31
 f/F/G/B/ A/a/c'/a/ f/B/A/B/ G/c/B/c/ | A/c/c/c/ c'/c/c/c/ A/A/A/a/ A/A/c/c/ | %33
 B/B/B/F/ F/F/F/f/ F/F/d/d/ c/c/g/e/ | c/A/A/A/ G/G/g/G/ F/F/F/F/ c/c/c'/c/ | %35
 d/d/d/d/ c/c/c'/c/ d/d/d/d/ e/E/E/e/ | %36
 .f/(F/4G/4A/).F/ .E/(e/4f/4g/).e/ .d/(D/4E/4F/).D/ .E/(c/4B/4A/).G/ | %37
 .F/(B/4A/4G/).B/ .G/(F/4G/4A/).c/ .B/(d/4c/4B/).A/ .G/(c/4B/4A/).G/ | %38
 .A/(f/4e/4f/).A/ .c/(c/4d/4e/).c/ .A/(f/4g/4a/).f/ .a/(a/4g/4f/).e/ | %39
 .d/(d/4c/4d/).e/ .f/(a/4g/4f/).a/ .b/(f/4e/4d/).d/ c/G/c/c/ | F2 C2 D2 A,2 | B,2 F,2 B,2 C2 | %42
 Ff e2 d2 c2 | F>G A2 B2 G>g | a>a (a/b/)(a/g/) f>f (f/g/)(f/e/) | d2 (f2 (f/)_e/)(d/e/) c>c | %46
 c>c' (c'/d'/)(c'/b/) a>a (a/b/)(a/g/) | ((f/_e/))(d/e/) c>c Bf =e>e | f f2 e- e d2 c- | %49
 c B2 A- A>G G2 | A a2 g f f'2 _e' | d'2 f'c' d'2 c'2 | c2 (c>B) A2 (a>g) | f3 f' f2 e2 | %54
 !tenuto!f!tenuto!F!tenuto!E!tenuto!e !tenuto!c!tenuto!d'!tenuto!c'!tenuto!c | %55
 !tenuto!B!tenuto!b!tenuto!a!tenuto!A !tenuto!G!tenuto!d!tenuto!e!tenuto!c | F,4 z4 |] %57

